images/strikethrough.svg

<?xml version="1.0" encoding="UTF-8" standalone="no"?>
<svg width="15px" height="13px" viewBox="0 0 15 13" version="1.1" xmlns="http://www.w3.org/2000/svg" xmlns:xlink="http://www.w3.org/1999/xlink">
    <!-- Generator: Sketch 40.3 (33839) - http://www.bohemiancoding.com/sketch -->
    <title>strikethrough</title>
    <desc>Created with Sketch.</desc>
    <defs></defs>
    <g id="Page-1" stroke="none" stroke-width="1" fill="none" fill-rule="evenodd">
        <g id="strikethrough" fill="#000000">
            <g id="Page-1">
                <g>
                    <g id="strikethrough">
                        <g id="Capa_1">
                            <g id="Group">
                                <path d="M4.04006836,5.95438409 L10.2546386,5.95438409 C10.0483301,5.81956818 9.78342776,5.67325909 9.45999026,5.51578182 C8.88032224,5.25714091 8.39765625,5.07150682 8.01284179,4.95908637 C6.82523437,4.61050909 6.04734375,4.24769091 5.67928711,3.87095682 C5.31123047,3.49416363 5.1272461,3.10055909 5.1272461,2.68999545 C5.1272461,2.19502045 5.31413086,1.78445682 5.68769531,1.45833409 C6.06688476,1.12662727 6.57433594,0.960611368 7.21001953,0.960611368 C7.89032226,0.960611368 8.47582031,1.216475 8.96660153,1.72823182 C9.26206059,2.04306818 9.54940429,2.6195 9.82810544,3.45749773 L9.94541012,3.47427955 L10.6480078,3.52486137 L10.7484961,3.49962955 C10.7763574,3.34770682 10.7903906,3.22134091 10.7903906,3.11997045 C10.7903906,2.78253182 10.7513086,2.26808637 10.673086,1.57633863 C10.6115332,1.12659773 10.5531739,0.794654545 10.4974511,0.580922727 C9.87864256,0.378565909 9.38496097,0.243543182 9.01693359,0.176120455 C8.36455078,0.0692545455 7.89875976,0.0158068182 7.62023438,0.0158068182 C6.17024414,0.0158068182 5.07459961,0.373040909 4.33286133,1.087125 C3.58564453,1.80691137 3.21208008,2.67590227 3.21208008,3.69377273 C3.21208008,4.20544091 3.34590821,4.73400909 3.61362304,5.27953637 C3.74170899,5.53268182 3.88391601,5.75764091 4.04006836,5.95438409 L4.04006836,5.95438409 L4.04006836,5.95438409 Z" id="Shape"></path>
                                <path d="M8.28076172,8.11389091 C8.85512691,8.35007727 9.23721679,8.54986363 9.42670897,8.71277727 C9.87846679,9.12337045 10.1042578,9.56480906 10.1042578,10.0370932 C10.1042578,10.4195887 9.97309571,10.7822887 9.71103512,11.1253409 C9.46019532,11.4626318 9.12011718,11.7047863 8.690625,11.8507113 C8.27261719,12.0028705 7.88493164,12.0785955 7.52821289,12.0785955 C7.1211914,12.0785955 6.75316406,12.0166091 6.42416015,11.8929613 C6.07845703,11.7747795 5.78566406,11.6147023 5.54583985,11.4121091 C5.2949414,11.2040205 5.0718164,10.9397363 4.87666992,10.6191091 C4.84875,10.5742887 4.81385742,10.4982682 4.77205078,10.3915205 C4.73030274,10.2845363 4.66743164,10.1272068 4.58387696,9.91923632 C4.50020508,9.71105906 4.41665039,9.51145 4.33297851,9.32029094 L3.47982422,9.33716132 L3.47982422,9.70831132 L3.46309571,10.0206363 C3.45758789,10.2341909 3.45758789,10.4253795 3.46309571,10.5941137 C3.47416992,10.8639818 3.47982422,11.3026727 3.47982422,11.9101568 L3.47982422,12.0198591 C3.47982422,12.0986273 3.50208985,12.1603182 3.54665039,12.2054932 C3.63029297,12.2727091 3.83103515,12.3515955 4.14890625,12.4415909 L5.31987304,12.7789705 C5.77148437,12.9084091 6.31523437,12.9731137 6.95091797,12.9731137 C7.636875,12.9731137 8.20256836,12.9140523 8.64890625,12.7958705 C9.05604494,12.6944409 9.48222653,12.5088955 9.92871097,12.2391455 C10.3301367,11.9802977 10.6341211,11.7527091 10.840459,11.5556409 C11.1078515,11.2802182 11.3060742,10.9878068 11.4343067,10.6783182 C11.6631153,10.1103955 11.7772851,9.51425679 11.7772851,8.89019773 C11.7772851,8.592025 11.7579492,8.33347273 11.7190429,8.11406818 L8.28076172,8.11406818 L8.28076172,8.11389091 L8.28076172,8.11389091 L8.28076172,8.11389091 Z" id="Shape"></path>
                                <path d="M14.9138672,6.57014091 C14.8635351,6.51958863 14.7995801,6.49432727 14.7213867,6.49432727 L0.267626953,6.49432727 C0.189521485,6.49432727 0.125449219,6.51958863 0.075234375,6.57014091 C0.0251660156,6.62069318 0,6.68539773 0,6.76428409 L0,7.30399091 C0,7.38287727 0.0250488281,7.44746363 0.075234375,7.49813409 C0.125449219,7.54868637 0.189638672,7.57377045 0.267626953,7.57377045 L14.7213867,7.57377045 C14.7995801,7.57377045 14.8635644,7.54868637 14.9138672,7.49813409 C14.9639942,7.44746363 14.9890429,7.38287727 14.9890429,7.30399091 L14.9890429,6.76428409 C14.9890429,6.68539773 14.9639942,6.62069318 14.9138672,6.57014091 L14.9138672,6.57014091 L14.9138672,6.57014091 Z" id="Shape"></path>
                            </g>
                        </g>
                    </g>
                </g>
            </g>
        </g>
    </g>
</svg>

<svg width="15" height="13" xmlns="http://www.w3.org/2000/svg"><g fill="#000" fill-rule="evenodd"><path d="M4.04 5.954h6.215a7.412 7.412 0 0 0-.795-.438 11.907 11.907 0 0 0-1.447-.557c-1.188-.348-1.966-.711-2.334-1.088-.368-.377-.552-.77-.552-1.181 0-.495.187-.906.56-1.232.38-.331.887-.497 1.523-.497.68 0 1.266.255 1.757.767.295.315.582.891.861 1.73l.117.016.703.05.1-.024c.028-.152.042-.279.042-.38 0-.337-.039-.852-.117-1.544a9.374 9.374 0 0 0-.176-.995C9.88.379 9.385.244 9.017.176 8.365.07 7.899.016 7.62.016c-1.45 0-2.545.357-3.287 1.071-.747.72-1.12 1.589-1.12 2.607 0 .511.133 1.04.4 1.586.129.253.27.478.427.674zM8.28 8.114c.575.236.957.436 1.147.599.451.41.677.852.677 1.324 0 .383-.13.745-.393 1.088-.25.338-.59.58-1.02.726a3.416 3.416 0 0 1-1.163.228c-.407 0-.775-.062-1.104-.186a2.696 2.696 0 0 1-.878-.48 3.133 3.133 0 0 1-.67-.794 1.527 1.527 0 0 1-.104-.227 57.523 57.523 0 0 0-.188-.473 21.371 21.371 0 0 0-.251-.599l-.853.017v.371l-.017.313a9.92 9.92 0 0 0 0 .573c.011.27.017.709.017 1.316v.11c0 .079.022.14.067.185.083.068.284.147.602.237l1.17.337c.452.13.996.194 1.632.194.686 0 1.252-.059 1.698-.177a4.694 4.694 0 0 0 1.28-.557c.401-.259.705-.486.911-.683.268-.276.466-.568.594-.878a4.74 4.74 0 0 0 .343-1.788c0-.298-.02-.557-.058-.776H8.281zM14.914 6.57a.26.26 0 0 0-.193-.076H.268a.26.26 0 0 0-.193.076.264.264 0 0 0-.075.194v.54c0 .079.025.143.075.194a.26.26 0 0 0 .193.076H14.72a.26.26 0 0 0 .193-.076.264.264 0 0 0 .075-.194v-.54a.264.264 0 0 0-.075-.194z"/></g></svg>
